X:43
T: Seanduine chill chocáin, S. 73
N: I0542
O: Irland
S: O'SULLIVAN, Donal: Song of the Irish]
R: Liebeslied?, Jugendlied?]
M: 6/8
L: 1/32
K: G
B4 | c4c4c4B4A4G4 | G4B4G4E2D2D4
D4 | G8G4A4c4B4 | A8A4A8
B2B2 | c4c4c4B4A4G4 | G4B4G4E2D2D4
D4 | G8B4G4A4A4 | G8G4G8
G4 | G4B4c4d8d4 | e8e4d4B4G3
G | G4c4c4c8c4 | B4G4E4G2E2D4
D4 | c8c4B4d4B4 | A4G4E4G4E4
D4 | G8B4G4A4A4 | G8G4G8

